build/images/icons_star_active.svg

<?xml version="1.0" encoding="UTF-8"?>
<svg width="16px" height="16px" viewBox="0 0 16 16" version="1.1" xmlns="http://www.w3.org/2000/svg" xmlns:xlink="http://www.w3.org/1999/xlink">
    <!-- Generator: sketchtool 63.1 (101010) - https://sketch.com -->
    <title>46282A6D-635A-4FA6-B9A7-A8761235701C</title>
    <desc>Created with sketchtool.</desc>
    <g id="Page-1" stroke="none" stroke-width="1" fill="none" fill-rule="evenodd">
        <g id="Kupa-shop---catalogue" transform="translate(-1028.000000, -814.000000)" fill="#E5002B" fill-rule="nonzero">
            <g id="product-card" transform="translate(975.000000, 385.000000)">
                <g id="product-card/active">
                    <g id="icons/rate-stars" transform="translate(53.000000, 429.000000)">
                        <g id="icons/star/active">
                            <g id="star">
                                <path d="M8.1608,0.6064 L10.1432,5.2984 L15.2184,5.7344 C15.5704,5.7648 15.7136,6.204 15.4464,6.4352 L11.5968,9.7704 L12.7504,14.732 C12.8304,15.0768 12.4568,15.348 12.1544,15.1648 L7.7928,12.5344 L3.4312,15.1648 C3.128,15.3472 2.7552,15.076 2.8352,14.732 L3.9888,9.7704 L0.1384,6.4344 C-0.1288,6.2032 0.0136,5.764 0.3664,5.7336 L5.4416,5.2976 L7.424,0.6064 C7.5616,0.28 8.0232,0.28 8.1608,0.6064 Z" id="Path"></path>
                            </g>
                        </g>
                    </g>
                </g>
            </g>
        </g>
    </g>
</svg>

<svg width="16" height="16" xmlns="http://www.w3.org/2000/svg"><g id="Page-1" stroke="none" stroke-width="1" fill="none" fill-rule="evenodd"><g id="Kupa-shop---catalogue" transform="translate(-1028 -814)" fill="#E5002B" fill-rule="nonzero"><g id="product-card" transform="translate(975 385)"><g id="product-card/active"><g id="icons/rate-stars" transform="translate(53 429)"><g id="icons/star/active"><g id="star"><path d="M8.16.606l1.983 4.692 5.075.436a.4.4 0 01.228.701l-3.85 3.335 1.154 4.962a.4.4 0 01-.596.433l-4.361-2.63-4.362 2.63a.4.4 0 01-.596-.433L3.99 9.77.139 6.434a.4.4 0 01.227-.7l5.076-.436L7.424.606a.4.4 0 01.737 0z" id="Path"/></g></g></g></g></g></g></g></svg>
